X:367
T:
R:polska
S:Av komminister O. Laurin i Dalhem.
O:Gotland, Dalhem
M:3/4
L:1/16
K:D
dAFA fgec d4|dced fegf b2a2|agba fegf eded|cBgf edcB AGFE|
DFEG FAGB AdcB|AFDF AdB^G A4|Begf agba gfed|Bgec e4 d4::
e2ed c2cB ABcA|dcde fef^g a4|a2^gf efga bad'^g|a^gba f=gec AGEC|
DFAF dFAF DFAF|CGAG CGAG CGAG|CGAe gbe'd' c'bag|fgBc e4d4::
(GA)(ec) (GA)(ec) (GA)(ec)|(CG)(eG) (B,G)(eG) (A,G)(eG)|
(A,F)(dA) (A,F)(dF) (A,F)(AF)|Gcec GBeB GAeA|GA,CE GAce f2g2|
fAde dcde ^g2a2|ad'fa gbeg fadf|egBc e4 d4:|

